<?xml version="1.0" encoding="UTF-8"?>
<map version="1.10" tiledversion="1.11.2" orientation="orthogonal" renderorder="right-down" width="40" height="30" tilewidth="32" tileheight="32" infinite="0" nextlayerid="4" nextobjectid="374">
 <editorsettings>
  <export target="../../assets/levels/survival-03.json" format="json"/>
 </editorsettings>
 <tileset firstgid="1" source="Core Tiles.tsx"/>
 <tileset firstgid="61" source="Props.tsx"/>
 <layer id="1" name="tiles" width="40" height="30">
  <data encoding="csv">
0,0,0,0,0,0,0,0,0,0,0,0,0,0,0,4,22,22,22,22,22,22,22,22,22,22,22,22,22,22,22,22,22,22,22,22,22,22,22,6,
0,0,0,0,0,0,0,0,0,0,0,0,0,0,0,30,37,37,37,37,37,37,37,37,37,37,37,37,37,37,37,37,37,37,37,37,37,37,37,30,
4,22,22,22,22,22,22,22,22,22,22,22,22,22,22,18,8,8,8,8,8,8,8,8,9,34,34,34,34,34,34,34,34,34,34,34,34,34,34,30,
30,37,37,37,37,37,37,37,37,37,37,37,37,37,37,37,8,8,8,8,8,8,8,8,9,31,31,31,31,31,31,31,31,31,31,31,31,31,35,30,
30,8,8,8,8,8,8,8,8,8,8,8,8,8,8,8,8,8,8,8,8,8,27,8,9,31,31,31,31,31,31,31,31,31,31,31,31,31,35,30,
30,8,46,47,47,47,47,47,47,47,47,47,48,8,8,8,8,8,8,8,8,8,8,8,9,31,31,31,31,31,31,31,31,31,31,31,31,31,35,30,
30,8,52,53,53,53,53,53,53,53,53,53,54,8,8,8,8,8,8,8,8,8,8,8,9,32,32,32,32,32,32,32,32,32,32,31,31,31,35,30,
30,8,58,59,59,59,59,59,59,59,59,59,60,8,8,8,8,8,8,8,8,8,8,8,9,35,35,35,35,35,35,35,35,35,35,31,31,31,35,30,
30,8,8,8,8,8,8,8,8,8,8,8,8,8,8,8,8,8,8,8,8,8,8,8,9,35,35,35,35,35,35,35,35,35,35,31,31,31,35,30,
30,8,8,8,8,8,8,8,8,8,8,8,8,8,8,8,4,22,22,22,22,22,22,22,6,2,2,2,2,2,2,2,2,2,2,2,2,2,2,30,
30,8,46,47,47,47,47,47,47,47,47,47,48,8,8,8,30,37,37,37,37,39,37,37,30,8,8,8,8,8,8,8,8,8,8,8,27,8,8,30,
30,8,52,53,53,53,53,53,53,53,53,53,54,8,8,8,36,28,8,8,8,8,8,28,30,8,8,8,8,8,8,8,8,8,8,8,8,8,8,30,
30,8,58,59,59,59,59,59,59,59,59,59,60,8,8,8,38,8,8,8,8,8,8,8,30,8,8,8,46,47,47,47,47,47,47,48,8,8,8,30,
30,8,8,8,8,8,8,8,8,8,8,8,8,8,8,8,8,8,8,8,8,8,8,8,30,8,8,8,52,53,53,53,53,53,53,54,8,8,8,30,
30,8,8,8,8,8,8,8,8,8,8,8,8,8,8,8,8,8,8,8,8,8,8,8,30,8,8,8,52,53,53,53,53,53,53,54,8,8,8,30,
30,8,46,47,47,47,47,47,47,47,47,47,48,8,8,8,24,28,8,8,8,8,8,28,30,8,8,8,52,53,53,53,53,53,53,54,8,8,8,30,
30,8,52,53,53,53,53,53,53,53,53,53,54,8,8,8,16,22,22,22,22,22,22,22,18,8,8,8,52,53,53,53,53,53,53,54,8,8,8,30,
30,8,58,59,59,59,59,59,59,59,59,59,60,8,8,19,37,37,37,37,37,37,37,37,37,20,8,8,52,53,53,53,53,53,53,54,8,8,8,30,
30,8,8,8,8,8,8,8,8,8,8,8,8,8,8,9,34,34,34,34,34,34,34,34,34,7,8,8,52,53,53,53,53,53,53,54,8,8,8,30,
30,8,8,8,8,8,8,8,8,8,8,8,8,8,8,9,35,35,35,35,35,35,35,35,35,7,8,8,52,53,53,53,53,53,53,54,8,8,8,30,
30,8,46,47,47,47,47,47,47,47,47,47,48,8,8,9,35,35,35,35,35,35,35,35,35,7,8,8,52,53,53,53,53,53,53,54,8,8,8,30,
30,8,52,53,53,53,53,53,53,53,53,53,54,8,8,9,35,35,35,35,35,35,35,35,35,7,8,8,52,53,53,53,53,53,53,54,8,8,8,30,
30,8,58,59,59,59,59,59,59,59,59,59,60,8,8,25,2,2,2,2,2,2,2,2,2,26,8,8,52,53,53,53,53,53,53,54,8,8,8,30,
30,8,8,8,8,8,8,8,8,8,8,8,8,8,8,8,8,8,8,8,8,8,8,8,8,8,8,8,52,53,53,53,53,53,53,54,8,8,8,30,
30,8,8,8,8,8,8,8,8,8,8,8,8,8,8,8,8,8,8,8,8,8,8,8,8,8,8,8,52,53,53,53,53,53,53,54,8,8,8,30,
30,8,46,47,47,47,47,47,47,47,47,47,48,8,8,19,14,14,14,14,14,14,14,14,14,20,8,8,58,59,59,59,59,59,59,60,8,8,8,30,
30,8,52,53,53,53,53,53,53,53,53,53,54,8,8,9,34,34,34,34,34,34,34,34,34,7,8,8,8,8,8,8,8,8,8,8,8,8,8,30,
30,8,58,59,59,59,59,59,59,59,59,59,60,8,8,9,35,35,35,35,35,35,35,35,35,7,8,8,8,8,8,8,8,8,8,8,8,8,8,30,
30,8,8,8,8,8,8,8,8,8,8,8,8,8,8,9,35,35,35,35,35,35,35,35,35,7,8,8,8,8,8,8,8,8,8,8,8,8,8,30,
16,22,22,22,22,22,22,22,22,22,22,22,22,22,22,22,22,22,22,22,22,22,22,22,22,22,22,22,22,22,22,22,22,22,22,22,22,22,22,18
</data>
 </layer>
 <objectgroup id="3" name="props">
  <object id="1" gid="73" x="609.5" y="398" width="64" height="64"/>
  <object id="2" gid="70" x="520" y="120" width="64" height="64"/>
  <object id="3" gid="70" x="552" y="120" width="64" height="64"/>
  <object id="4" gid="70" x="584" y="120" width="64" height="64"/>
  <object id="5" gid="70" x="616" y="120" width="64" height="64"/>
  <object id="6" gid="70" x="649" y="120" width="64" height="64"/>
  <object id="7" gid="70" x="680.5" y="120" width="64" height="64"/>
  <object id="8" gid="70" x="712.5" y="120" width="64" height="64"/>
  <object id="9" gid="70" x="744.5" y="120" width="64" height="64"/>
  <object id="10" gid="64" x="704" y="462" width="64" height="64"/>
  <object id="11" gid="66" x="654" y="534" width="64" height="64"/>
  <object id="12" gid="66" x="750.5" y="835.5" width="64" height="64"/>
  <object id="13" gid="67" x="533" y="856" width="64" height="64"/>
  <object id="14" gid="63" x="545" y="395.5" width="64" height="64"/>
  <object id="15" gid="69" x="569.5" y="414.5" width="64" height="64"/>
  <object id="16" gid="72" x="755" y="560" width="64" height="64"/>
  <object id="17" gid="72" x="755" y="542" width="64" height="64"/>
  <object id="18" gid="72" x="739.5" y="559.5" width="64" height="64"/>
  <object id="19" gid="72" x="739.5" y="543" width="64" height="64"/>
  <object id="20" gid="72" x="1235" y="976" width="64" height="64"/>
  <object id="21" gid="72" x="1235" y="960.5" width="64" height="64"/>
  <object id="22" gid="72" x="1223.25" y="967" width="64" height="64"/>
  <object id="23" gid="74" x="69" y="860" width="64" height="64"/>
  <object id="24" gid="74" x="69" y="890.333" width="64" height="64"/>
  <object id="25" gid="74" x="69" y="920" width="64" height="64"/>
  <object id="26" gid="74" x="100" y="920" width="64" height="64"/>
  <object id="27" gid="74" x="131" y="920" width="64" height="64"/>
  <object id="28" gid="74" x="165.667" y="920" width="64" height="64"/>
  <object id="29" gid="74" x="196" y="920" width="64" height="64"/>
  <object id="30" gid="74" x="228" y="920" width="64" height="64"/>
  <object id="31" gid="74" x="260" y="920" width="64" height="64"/>
  <object id="32" gid="74" x="290" y="920" width="64" height="64"/>
  <object id="33" gid="74" x="322" y="920" width="64" height="64"/>
  <object id="34" gid="74" x="354" y="920" width="64" height="64"/>
  <object id="35" gid="74" x="386" y="920" width="64" height="64"/>
  <object id="36" gid="74" x="386" y="890.333" width="64" height="64"/>
  <object id="37" gid="74" x="386" y="860" width="64" height="64"/>
  <object id="38" gid="74" x="354" y="860" width="64" height="64"/>
  <object id="39" gid="74" x="322" y="860" width="64" height="64"/>
  <object id="40" gid="74" x="290" y="860" width="64" height="64"/>
  <object id="41" gid="74" x="260" y="860" width="64" height="64"/>
  <object id="42" gid="74" x="228" y="860" width="64" height="64"/>
  <object id="43" gid="74" x="196" y="860" width="64" height="64"/>
  <object id="44" gid="74" x="164" y="860" width="64" height="64"/>
  <object id="45" gid="74" x="131" y="860" width="64" height="64"/>
  <object id="46" gid="74" x="100" y="860" width="64" height="64"/>
  <object id="47" gid="74" x="100" y="889" width="64" height="64"/>
  <object id="48" gid="74" x="131" y="889.5" width="64" height="64"/>
  <object id="49" gid="74" x="166" y="890" width="64" height="64"/>
  <object id="50" gid="74" x="196" y="889.5" width="64" height="64"/>
  <object id="51" gid="74" x="228" y="890.5" width="64" height="64"/>
  <object id="52" gid="74" x="260" y="890" width="64" height="64"/>
  <object id="53" gid="74" x="290" y="891" width="64" height="64"/>
  <object id="54" gid="74" x="322" y="890" width="64" height="64"/>
  <object id="55" gid="74" x="354" y="887" width="64" height="64"/>
  <object id="56" gid="76" x="347.25" y="915" width="64" height="64"/>
  <object id="57" gid="76" x="378" y="915" width="64" height="64"/>
  <object id="58" gid="76" x="315" y="915" width="64" height="64"/>
  <object id="59" gid="76" x="282.5" y="915" width="64" height="64"/>
  <object id="60" gid="76" x="251" y="915" width="64" height="64"/>
  <object id="61" gid="76" x="251.25" y="885" width="64" height="64"/>
  <object id="62" gid="76" x="285.75" y="885" width="64" height="64"/>
  <object id="63" gid="76" x="314.75" y="885" width="64" height="64"/>
  <object id="64" gid="76" x="345.75" y="888.25" width="64" height="64"/>
  <object id="65" gid="76" x="380.25" y="885" width="64" height="64"/>
  <object id="66" gid="76" x="218.5" y="885" width="64" height="64"/>
  <object id="67" gid="76" x="218.75" y="915" width="64" height="64"/>
  <object id="68" gid="76" x="186.5" y="915" width="64" height="64"/>
  <object id="69" gid="76" x="187" y="885" width="64" height="64"/>
  <object id="70" gid="76" x="153.5" y="885" width="64" height="64"/>
  <object id="71" gid="76" x="153" y="915" width="64" height="64"/>
  <object id="72" gid="76" x="120.5" y="915" width="64" height="64"/>
  <object id="73" gid="76" x="121.25" y="885" width="64" height="64"/>
  <object id="74" gid="76" x="90" y="885" width="64" height="64"/>
  <object id="75" gid="76" x="90" y="915" width="64" height="64"/>
  <object id="76" gid="74" x="69.5" y="700.667" width="64" height="64"/>
  <object id="77" gid="74" x="69.5" y="731" width="64" height="64"/>
  <object id="78" gid="74" x="69.5" y="760.667" width="64" height="64"/>
  <object id="79" gid="74" x="100.5" y="760.667" width="64" height="64"/>
  <object id="80" gid="74" x="131.5" y="760.667" width="64" height="64"/>
  <object id="81" gid="74" x="166.167" y="760.667" width="64" height="64"/>
  <object id="82" gid="74" x="196.5" y="760.667" width="64" height="64"/>
  <object id="83" gid="74" x="228.5" y="760.667" width="64" height="64"/>
  <object id="84" gid="74" x="260.5" y="760.667" width="64" height="64"/>
  <object id="85" gid="74" x="290.5" y="760.667" width="64" height="64"/>
  <object id="86" gid="74" x="322.5" y="760.667" width="64" height="64"/>
  <object id="87" gid="74" x="354.5" y="760.667" width="64" height="64"/>
  <object id="88" gid="74" x="386.5" y="760.667" width="64" height="64"/>
  <object id="89" gid="74" x="386.5" y="731" width="64" height="64"/>
  <object id="90" gid="74" x="386.5" y="700.667" width="64" height="64"/>
  <object id="91" gid="74" x="354.5" y="700.667" width="64" height="64"/>
  <object id="92" gid="74" x="322.5" y="700.667" width="64" height="64"/>
  <object id="93" gid="74" x="290.5" y="700.667" width="64" height="64"/>
  <object id="94" gid="74" x="260.5" y="700.667" width="64" height="64"/>
  <object id="95" gid="74" x="228.5" y="700.667" width="64" height="64"/>
  <object id="96" gid="74" x="196.5" y="700.667" width="64" height="64"/>
  <object id="97" gid="74" x="164.5" y="700.667" width="64" height="64"/>
  <object id="98" gid="74" x="131.5" y="700.667" width="64" height="64"/>
  <object id="99" gid="74" x="100.5" y="700.667" width="64" height="64"/>
  <object id="100" gid="74" x="100.5" y="729.667" width="64" height="64"/>
  <object id="101" gid="74" x="131.5" y="730.167" width="64" height="64"/>
  <object id="102" gid="74" x="166.5" y="730.667" width="64" height="64"/>
  <object id="103" gid="74" x="196.5" y="730.167" width="64" height="64"/>
  <object id="104" gid="74" x="228.5" y="731.167" width="64" height="64"/>
  <object id="105" gid="74" x="260.5" y="730.667" width="64" height="64"/>
  <object id="106" gid="74" x="290.5" y="731.667" width="64" height="64"/>
  <object id="107" gid="74" x="322.5" y="730.667" width="64" height="64"/>
  <object id="108" gid="74" x="354.5" y="727.667" width="64" height="64"/>
  <object id="109" gid="76" x="347.75" y="755.667" width="64" height="64"/>
  <object id="110" gid="76" x="378.5" y="755.667" width="64" height="64"/>
  <object id="111" gid="76" x="315.5" y="755.667" width="64" height="64"/>
  <object id="112" gid="76" x="283" y="755.667" width="64" height="64"/>
  <object id="113" gid="76" x="251.5" y="755.667" width="64" height="64"/>
  <object id="114" gid="76" x="251.75" y="725.667" width="64" height="64"/>
  <object id="115" gid="76" x="286.25" y="725.667" width="64" height="64"/>
  <object id="116" gid="76" x="315.25" y="725.667" width="64" height="64"/>
  <object id="117" gid="76" x="346.25" y="728.917" width="64" height="64"/>
  <object id="118" gid="76" x="380.75" y="725.667" width="64" height="64"/>
  <object id="119" gid="76" x="219" y="725.667" width="64" height="64"/>
  <object id="120" gid="76" x="219.25" y="755.667" width="64" height="64"/>
  <object id="121" gid="76" x="187" y="755.667" width="64" height="64"/>
  <object id="122" gid="76" x="187.5" y="725.667" width="64" height="64"/>
  <object id="123" gid="76" x="154" y="725.667" width="64" height="64"/>
  <object id="124" gid="76" x="153.5" y="755.667" width="64" height="64"/>
  <object id="125" gid="76" x="121" y="755.667" width="64" height="64"/>
  <object id="126" gid="76" x="121.75" y="725.667" width="64" height="64"/>
  <object id="127" gid="76" x="90.5" y="725.667" width="64" height="64"/>
  <object id="128" gid="76" x="90.5" y="755.667" width="64" height="64"/>
  <object id="129" gid="74" x="69.5" y="538.667" width="64" height="64"/>
  <object id="130" gid="74" x="69.5" y="569" width="64" height="64"/>
  <object id="131" gid="74" x="69.5" y="598.667" width="64" height="64"/>
  <object id="132" gid="74" x="100.5" y="598.667" width="64" height="64"/>
  <object id="133" gid="74" x="131.5" y="598.667" width="64" height="64"/>
  <object id="134" gid="74" x="166.167" y="598.667" width="64" height="64"/>
  <object id="135" gid="74" x="196.5" y="598.667" width="64" height="64"/>
  <object id="136" gid="74" x="228.5" y="598.667" width="64" height="64"/>
  <object id="137" gid="74" x="260.5" y="598.667" width="64" height="64"/>
  <object id="138" gid="74" x="290.5" y="598.667" width="64" height="64"/>
  <object id="139" gid="74" x="322.5" y="598.667" width="64" height="64"/>
  <object id="140" gid="74" x="354.5" y="598.667" width="64" height="64"/>
  <object id="141" gid="74" x="386.5" y="598.667" width="64" height="64"/>
  <object id="142" gid="74" x="386.5" y="569" width="64" height="64"/>
  <object id="143" gid="74" x="386.5" y="538.667" width="64" height="64"/>
  <object id="144" gid="74" x="354.5" y="538.667" width="64" height="64"/>
  <object id="145" gid="74" x="322.5" y="538.667" width="64" height="64"/>
  <object id="146" gid="74" x="290.5" y="538.667" width="64" height="64"/>
  <object id="147" gid="74" x="260.5" y="538.667" width="64" height="64"/>
  <object id="148" gid="74" x="228.5" y="538.667" width="64" height="64"/>
  <object id="149" gid="74" x="196.5" y="538.667" width="64" height="64"/>
  <object id="150" gid="74" x="164.5" y="538.667" width="64" height="64"/>
  <object id="151" gid="74" x="131.5" y="538.667" width="64" height="64"/>
  <object id="152" gid="74" x="100.5" y="538.667" width="64" height="64"/>
  <object id="153" gid="74" x="100.5" y="567.667" width="64" height="64"/>
  <object id="154" gid="74" x="131.5" y="568.167" width="64" height="64"/>
  <object id="155" gid="74" x="166.5" y="568.667" width="64" height="64"/>
  <object id="156" gid="74" x="196.5" y="568.167" width="64" height="64"/>
  <object id="157" gid="74" x="228.5" y="569.167" width="64" height="64"/>
  <object id="158" gid="74" x="260.5" y="568.667" width="64" height="64"/>
  <object id="159" gid="74" x="290.5" y="569.667" width="64" height="64"/>
  <object id="160" gid="74" x="322.5" y="568.667" width="64" height="64"/>
  <object id="161" gid="74" x="354.5" y="565.667" width="64" height="64"/>
  <object id="162" gid="76" x="347.75" y="593.667" width="64" height="64"/>
  <object id="163" gid="76" x="378.5" y="593.667" width="64" height="64"/>
  <object id="164" gid="76" x="315.5" y="593.667" width="64" height="64"/>
  <object id="165" gid="76" x="283" y="593.667" width="64" height="64"/>
  <object id="166" gid="76" x="251.5" y="593.667" width="64" height="64"/>
  <object id="167" gid="76" x="251.75" y="563.667" width="64" height="64"/>
  <object id="168" gid="76" x="286.25" y="563.667" width="64" height="64"/>
  <object id="169" gid="76" x="315.25" y="563.667" width="64" height="64"/>
  <object id="170" gid="76" x="346.25" y="566.917" width="64" height="64"/>
  <object id="171" gid="76" x="380.75" y="563.667" width="64" height="64"/>
  <object id="172" gid="76" x="219" y="563.667" width="64" height="64"/>
  <object id="173" gid="76" x="219.25" y="593.667" width="64" height="64"/>
  <object id="174" gid="76" x="187" y="593.667" width="64" height="64"/>
  <object id="175" gid="76" x="187.5" y="563.667" width="64" height="64"/>
  <object id="176" gid="76" x="154" y="563.667" width="64" height="64"/>
  <object id="177" gid="76" x="153.5" y="593.667" width="64" height="64"/>
  <object id="178" gid="76" x="121" y="593.667" width="64" height="64"/>
  <object id="179" gid="76" x="121.75" y="563.667" width="64" height="64"/>
  <object id="180" gid="76" x="90.5" y="563.667" width="64" height="64"/>
  <object id="181" gid="76" x="90.5" y="593.667" width="64" height="64"/>
  <object id="182" gid="74" x="69.5" y="381.333" width="64" height="64"/>
  <object id="183" gid="74" x="69.5" y="411.666" width="64" height="64"/>
  <object id="184" gid="74" x="69.5" y="441.333" width="64" height="64"/>
  <object id="185" gid="74" x="100.5" y="441.333" width="64" height="64"/>
  <object id="186" gid="74" x="131.5" y="441.333" width="64" height="64"/>
  <object id="187" gid="74" x="166.167" y="441.333" width="64" height="64"/>
  <object id="188" gid="74" x="196.5" y="441.333" width="64" height="64"/>
  <object id="189" gid="74" x="228.5" y="441.333" width="64" height="64"/>
  <object id="190" gid="74" x="260.5" y="441.333" width="64" height="64"/>
  <object id="191" gid="74" x="290.5" y="441.333" width="64" height="64"/>
  <object id="192" gid="74" x="322.5" y="441.333" width="64" height="64"/>
  <object id="193" gid="74" x="354.5" y="441.333" width="64" height="64"/>
  <object id="194" gid="74" x="386.5" y="441.333" width="64" height="64"/>
  <object id="195" gid="74" x="386.5" y="411.666" width="64" height="64"/>
  <object id="196" gid="74" x="386.5" y="381.333" width="64" height="64"/>
  <object id="197" gid="74" x="354.5" y="381.333" width="64" height="64"/>
  <object id="198" gid="74" x="322.5" y="381.333" width="64" height="64"/>
  <object id="199" gid="74" x="290.5" y="381.333" width="64" height="64"/>
  <object id="200" gid="74" x="260.5" y="381.333" width="64" height="64"/>
  <object id="201" gid="74" x="228.5" y="381.333" width="64" height="64"/>
  <object id="202" gid="74" x="196.5" y="381.333" width="64" height="64"/>
  <object id="203" gid="74" x="164.5" y="381.333" width="64" height="64"/>
  <object id="204" gid="74" x="131.5" y="381.333" width="64" height="64"/>
  <object id="205" gid="74" x="100.5" y="381.333" width="64" height="64"/>
  <object id="206" gid="74" x="100.5" y="410.333" width="64" height="64"/>
  <object id="207" gid="74" x="131.5" y="410.833" width="64" height="64"/>
  <object id="208" gid="74" x="166.5" y="411.333" width="64" height="64"/>
  <object id="209" gid="74" x="196.5" y="410.833" width="64" height="64"/>
  <object id="210" gid="74" x="228.5" y="411.833" width="64" height="64"/>
  <object id="211" gid="74" x="260.5" y="411.333" width="64" height="64"/>
  <object id="212" gid="74" x="290.5" y="412.333" width="64" height="64"/>
  <object id="213" gid="74" x="322.5" y="411.333" width="64" height="64"/>
  <object id="214" gid="74" x="354.5" y="408.333" width="64" height="64"/>
  <object id="215" gid="76" x="347.75" y="436.333" width="64" height="64"/>
  <object id="216" gid="76" x="378.5" y="436.333" width="64" height="64"/>
  <object id="217" gid="76" x="315.5" y="436.333" width="64" height="64"/>
  <object id="218" gid="76" x="283" y="436.333" width="64" height="64"/>
  <object id="219" gid="76" x="251.5" y="436.333" width="64" height="64"/>
  <object id="220" gid="76" x="251.75" y="406.333" width="64" height="64"/>
  <object id="221" gid="76" x="286.25" y="406.333" width="64" height="64"/>
  <object id="222" gid="76" x="315.25" y="406.333" width="64" height="64"/>
  <object id="223" gid="76" x="346.25" y="409.583" width="64" height="64"/>
  <object id="224" gid="76" x="380.75" y="406.333" width="64" height="64"/>
  <object id="225" gid="76" x="219" y="406.333" width="64" height="64"/>
  <object id="226" gid="76" x="219.25" y="436.333" width="64" height="64"/>
  <object id="227" gid="76" x="187" y="436.333" width="64" height="64"/>
  <object id="228" gid="76" x="187.5" y="406.333" width="64" height="64"/>
  <object id="229" gid="76" x="154" y="406.333" width="64" height="64"/>
  <object id="230" gid="76" x="153.5" y="436.333" width="64" height="64"/>
  <object id="231" gid="76" x="121" y="436.333" width="64" height="64"/>
  <object id="232" gid="76" x="121.75" y="406.333" width="64" height="64"/>
  <object id="233" gid="76" x="90.5" y="406.333" width="64" height="64"/>
  <object id="234" gid="76" x="90.5" y="436.333" width="64" height="64"/>
  <object id="235" gid="74" x="70.1667" y="220.667" width="64" height="64"/>
  <object id="236" gid="74" x="70.1667" y="251" width="64" height="64"/>
  <object id="237" gid="74" x="70.1667" y="280.667" width="64" height="64"/>
  <object id="238" gid="74" x="101.167" y="280.667" width="64" height="64"/>
  <object id="239" gid="74" x="132.167" y="280.667" width="64" height="64"/>
  <object id="240" gid="74" x="166.834" y="280.667" width="64" height="64"/>
  <object id="241" gid="74" x="197.167" y="280.667" width="64" height="64"/>
  <object id="242" gid="74" x="229.167" y="280.667" width="64" height="64"/>
  <object id="243" gid="74" x="261.167" y="280.667" width="64" height="64"/>
  <object id="244" gid="74" x="291.167" y="280.667" width="64" height="64"/>
  <object id="245" gid="74" x="323.167" y="280.667" width="64" height="64"/>
  <object id="246" gid="74" x="355.167" y="280.667" width="64" height="64"/>
  <object id="247" gid="74" x="387.167" y="280.667" width="64" height="64"/>
  <object id="248" gid="74" x="387.167" y="251" width="64" height="64"/>
  <object id="249" gid="74" x="387.167" y="220.667" width="64" height="64"/>
  <object id="250" gid="74" x="355.167" y="220.667" width="64" height="64"/>
  <object id="251" gid="74" x="323.167" y="220.667" width="64" height="64"/>
  <object id="252" gid="74" x="291.167" y="220.667" width="64" height="64"/>
  <object id="253" gid="74" x="261.167" y="220.667" width="64" height="64"/>
  <object id="254" gid="74" x="229.167" y="220.667" width="64" height="64"/>
  <object id="255" gid="74" x="197.167" y="220.667" width="64" height="64"/>
  <object id="256" gid="74" x="165.167" y="220.667" width="64" height="64"/>
  <object id="257" gid="74" x="132.167" y="220.667" width="64" height="64"/>
  <object id="258" gid="74" x="101.167" y="220.667" width="64" height="64"/>
  <object id="259" gid="74" x="101.167" y="249.667" width="64" height="64"/>
  <object id="260" gid="74" x="132.167" y="250.167" width="64" height="64"/>
  <object id="261" gid="74" x="167.167" y="250.667" width="64" height="64"/>
  <object id="262" gid="74" x="197.167" y="250.167" width="64" height="64"/>
  <object id="263" gid="74" x="229.167" y="251.167" width="64" height="64"/>
  <object id="264" gid="74" x="261.167" y="250.667" width="64" height="64"/>
  <object id="265" gid="74" x="291.167" y="251.667" width="64" height="64"/>
  <object id="266" gid="74" x="323.167" y="250.667" width="64" height="64"/>
  <object id="267" gid="74" x="355.167" y="247.667" width="64" height="64"/>
  <object id="268" gid="76" x="348.417" y="275.667" width="64" height="64"/>
  <object id="269" gid="76" x="379.167" y="275.667" width="64" height="64"/>
  <object id="270" gid="76" x="316.167" y="275.667" width="64" height="64"/>
  <object id="271" gid="76" x="283.667" y="275.667" width="64" height="64"/>
  <object id="272" gid="76" x="252.167" y="275.667" width="64" height="64"/>
  <object id="273" gid="76" x="252.417" y="245.667" width="64" height="64"/>
  <object id="274" gid="76" x="286.917" y="245.667" width="64" height="64"/>
  <object id="275" gid="76" x="315.917" y="245.667" width="64" height="64"/>
  <object id="276" gid="76" x="346.917" y="248.917" width="64" height="64"/>
  <object id="277" gid="76" x="381.417" y="245.667" width="64" height="64"/>
  <object id="278" gid="76" x="219.667" y="245.667" width="64" height="64"/>
  <object id="279" gid="76" x="219.917" y="275.667" width="64" height="64"/>
  <object id="280" gid="76" x="187.667" y="275.667" width="64" height="64"/>
  <object id="281" gid="76" x="188.167" y="245.667" width="64" height="64"/>
  <object id="282" gid="76" x="154.667" y="245.667" width="64" height="64"/>
  <object id="283" gid="76" x="154.167" y="275.667" width="64" height="64"/>
  <object id="284" gid="76" x="121.667" y="275.667" width="64" height="64"/>
  <object id="285" gid="76" x="122.417" y="245.667" width="64" height="64"/>
  <object id="286" gid="76" x="91.1667" y="245.667" width="64" height="64"/>
  <object id="287" gid="76" x="91.1667" y="275.667" width="64" height="64"/>
  <object id="288" gid="63" x="993" y="589.5" width="64" height="64"/>
  <object id="289" gid="63" x="992.5" y="654" width="64" height="64"/>
  <object id="290" gid="74" x="995.5" y="572" width="64" height="64"/>
  <object id="291" gid="74" x="1028.5" y="572" width="64" height="64"/>
  <object id="292" gid="74" x="1061.5" y="572" width="64" height="64"/>
  <object id="293" gid="74" x="1093" y="572" width="64" height="64"/>
  <object id="294" gid="74" x="964.5" y="572" width="64" height="64"/>
  <object id="295" gid="74" x="933" y="572" width="64" height="64"/>
  <object id="296" gid="74" x="931" y="700" width="64" height="64"/>
  <object id="297" gid="74" x="966" y="700" width="64" height="64"/>
  <object id="298" gid="74" x="996.5" y="700" width="64" height="64"/>
  <object id="299" gid="74" x="1030" y="700" width="64" height="64"/>
  <object id="300" gid="74" x="1061" y="700" width="64" height="64"/>
  <object id="301" gid="74" x="1094" y="700" width="64" height="64"/>
  <object id="302" gid="76" x="906" y="711" width="64" height="64"/>
  <object id="303" gid="76" x="906" y="744" width="64" height="64"/>
  <object id="304" gid="76" x="906" y="777.5" width="64" height="64"/>
  <object id="305" gid="76" x="906" y="807.5" width="64" height="64"/>
  <object id="306" gid="76" x="906" y="839.5" width="64" height="64"/>
  <object id="307" gid="76" x="906" y="869" width="64" height="64"/>
  <object id="308" gid="76" x="938" y="869" width="64" height="64"/>
  <object id="309" gid="76" x="970" y="869.5" width="64" height="64"/>
  <object id="310" gid="76" x="1000.5" y="870" width="64" height="64"/>
  <object id="311" gid="76" x="1033" y="868" width="64" height="64"/>
  <object id="312" gid="76" x="1064" y="869" width="64" height="64"/>
  <object id="313" gid="76" x="1096.5" y="868.5" width="64" height="64"/>
  <object id="314" gid="76" x="1130" y="868" width="64" height="64"/>
  <object id="315" gid="76" x="1130" y="841.5" width="64" height="64"/>
  <object id="316" gid="76" x="1130" y="806.5" width="64" height="64"/>
  <object id="317" gid="76" x="1130" y="774.5" width="64" height="64"/>
  <object id="318" gid="76" x="1130" y="743.5" width="64" height="64"/>
  <object id="319" gid="76" x="1130" y="713.5" width="64" height="64"/>
  <object id="320" gid="76" x="1130" y="679.5" width="64" height="64"/>
  <object id="321" gid="76" x="1130" y="647.5" width="64" height="64"/>
  <object id="322" gid="76" x="1130" y="616.5" width="64" height="64"/>
  <object id="323" gid="76" x="1130" y="582" width="64" height="64"/>
  <object id="324" gid="76" x="1130" y="553" width="64" height="64"/>
  <object id="325" gid="76" x="1130" y="521" width="64" height="64"/>
  <object id="326" gid="76" x="1130" y="488.5" width="64" height="64"/>
  <object id="327" gid="76" x="1130" y="460" width="64" height="64"/>
  <object id="328" gid="76" x="1098" y="460" width="64" height="64"/>
  <object id="329" gid="76" x="1064.5" y="460" width="64" height="64"/>
  <object id="330" gid="76" x="1032.5" y="460" width="64" height="64"/>
  <object id="331" gid="76" x="1002.5" y="460" width="64" height="64"/>
  <object id="332" gid="76" x="968.5" y="460" width="64" height="64"/>
  <object id="333" gid="76" x="937" y="460" width="64" height="64"/>
  <object id="334" gid="76" x="906" y="460" width="64" height="64"/>
  <object id="335" gid="76" x="906" y="488.5" width="64" height="64"/>
  <object id="336" gid="76" x="906" y="520" width="64" height="64"/>
  <object id="337" gid="76" x="906" y="553.5" width="64" height="64"/>
  <object id="338" gid="76" x="906" y="583" width="64" height="64"/>
  <object id="339" gid="76" x="906" y="616" width="64" height="64"/>
  <object id="340" gid="76" x="906" y="648" width="64" height="64"/>
  <object id="341" gid="76" x="906" y="680" width="64" height="64"/>
  <object id="342" gid="74" x="931" y="732" width="64" height="64"/>
  <object id="343" gid="74" x="931" y="762.333" width="64" height="64"/>
  <object id="344" gid="74" x="931" y="792.667" width="64" height="64"/>
  <object id="345" gid="74" x="931" y="825.333" width="64" height="64"/>
  <object id="346" gid="74" x="966.667" y="825.333" width="64" height="64"/>
  <object id="347" gid="74" x="996.667" y="826.333" width="64" height="64"/>
  <object id="348" gid="74" x="1029" y="825.667" width="64" height="64"/>
  <object id="349" gid="74" x="1061.67" y="826" width="64" height="64"/>
  <object id="350" gid="74" x="1094" y="826.667" width="64" height="64"/>
  <object id="351" gid="74" x="1094" y="794.667" width="64" height="64"/>
  <object id="352" gid="74" x="1094" y="764.333" width="64" height="64"/>
  <object id="353" gid="74" x="1094" y="732" width="64" height="64"/>
  <object id="354" gid="74" x="933" y="537.333" width="64" height="64"/>
  <object id="355" gid="74" x="933" y="508.333" width="64" height="64"/>
  <object id="356" gid="74" x="933" y="476" width="64" height="64"/>
  <object id="357" gid="74" x="963.333" y="476" width="64" height="64"/>
  <object id="358" gid="74" x="996.333" y="476" width="64" height="64"/>
  <object id="359" gid="74" x="1030" y="476" width="64" height="64"/>
  <object id="360" gid="74" x="1064" y="476" width="64" height="64"/>
  <object id="361" gid="74" x="1093" y="476" width="64" height="64"/>
  <object id="362" gid="74" x="1093" y="505.667" width="64" height="64"/>
  <object id="363" gid="74" x="1093" y="537" width="64" height="64"/>
  <object id="364" gid="72" x="1046.75" y="684.5" width="64" height="64"/>
  <object id="365" gid="72" x="992.25" y="686" width="64" height="64"/>
  <object id="366" gid="72" x="1048" y="607.25" width="64" height="64"/>
  <object id="367" gid="72" x="1061.25" y="607.5" width="64" height="64"/>
  <object id="368" gid="72" x="1055.25" y="601" width="64" height="64"/>
  <object id="369" gid="65" x="985.333" y="614.667" width="64" height="64"/>
  <object id="370" gid="65" x="751" y="196" width="64" height="64"/>
  <object id="371" gid="67" x="352" y="335" width="64" height="64"/>
  <object id="372" gid="67" x="229" y="829" width="64" height="64"/>
  <object id="373" gid="67" x="452" y="965" width="64" height="64"/>
 </objectgroup>
 <layer id="2" name="decors" width="40" height="30">
  <data encoding="csv">
0,0,0,0,0,0,0,0,0,0,0,0,0,0,0,0,0,0,0,0,0,0,0,0,0,0,0,0,0,0,0,0,0,0,0,0,0,0,0,0,
0,0,0,0,0,0,0,0,0,0,0,0,0,0,0,0,0,41,0,0,39,0,0,41,0,0,0,0,0,40,0,0,0,0,0,0,39,0,0,0,
0,0,0,0,0,0,0,0,0,0,0,0,0,0,0,0,0,0,0,0,0,0,0,0,0,0,0,0,0,0,0,0,0,0,0,0,0,0,0,0,
0,0,41,0,0,41,0,39,0,41,0,0,41,0,0,40,0,0,0,0,0,0,0,0,0,0,0,0,0,0,0,0,0,0,0,0,0,0,0,0,
0,44,0,0,0,0,0,0,0,0,0,0,0,0,0,0,0,0,0,0,0,0,0,0,0,0,0,0,0,0,0,0,0,0,0,0,0,0,0,0,
0,0,0,0,0,0,0,0,0,0,0,0,0,0,0,0,0,0,0,0,0,0,0,0,0,0,0,0,0,0,0,0,0,0,0,0,0,0,0,0,
0,0,0,0,0,0,0,0,0,0,0,0,0,0,0,0,0,0,0,0,0,0,0,0,0,0,0,0,0,0,0,0,0,0,0,0,0,0,0,0,
0,0,0,0,0,0,0,0,0,0,0,0,0,0,0,0,0,0,0,0,0,0,0,0,0,0,0,0,0,0,0,0,0,0,0,0,0,0,0,0,
0,0,0,0,0,0,0,0,0,0,0,0,0,0,0,0,0,0,0,0,0,0,0,0,0,0,0,0,0,0,0,0,0,0,0,0,0,0,0,0,
0,0,0,0,0,0,0,0,0,0,0,0,0,0,0,0,0,0,0,0,0,0,0,0,0,0,0,0,0,0,0,0,0,0,0,0,0,0,0,0,
0,0,0,0,0,0,0,0,0,0,0,0,0,0,0,0,0,0,40,0,0,0,0,0,0,0,0,0,0,0,0,0,0,0,0,0,0,0,0,0,
0,0,0,0,0,0,0,0,0,0,0,0,0,0,0,0,0,0,0,0,0,0,0,0,0,0,0,0,0,0,0,0,0,0,0,0,0,0,0,0,
0,0,0,0,0,0,0,0,0,0,0,0,0,0,0,0,0,0,0,0,0,0,0,0,0,0,0,0,0,0,0,0,0,0,0,0,0,0,0,0,
0,0,0,0,0,0,0,0,0,0,0,0,0,0,0,0,0,0,0,45,0,0,0,0,0,0,0,0,0,0,0,0,0,0,0,0,0,0,0,0,
0,0,0,0,0,0,0,0,0,0,0,0,0,0,0,0,0,0,0,0,0,0,0,0,0,0,0,0,0,0,0,0,0,0,0,0,0,0,0,0,
0,0,0,0,0,0,0,0,0,0,0,0,0,0,0,0,0,0,0,0,0,0,0,0,0,0,0,0,0,0,0,0,0,0,0,0,0,0,0,0,
0,0,0,0,0,0,0,0,0,0,0,0,0,0,0,0,0,0,0,0,0,0,0,0,0,0,0,0,0,0,0,0,0,0,0,0,0,0,0,0,
0,0,0,0,0,0,0,0,0,0,0,0,0,0,0,0,0,0,0,0,0,0,0,0,0,0,0,0,0,0,0,0,0,0,0,0,0,0,0,0,
0,0,0,0,0,0,0,0,0,0,0,0,0,0,0,0,0,0,0,0,0,0,0,0,0,0,0,0,0,0,0,0,0,0,0,0,0,0,0,0,
0,0,0,0,0,0,0,0,0,0,0,0,0,0,0,0,0,0,0,0,0,0,0,0,0,0,0,0,0,0,0,0,0,0,0,0,0,44,0,0,
0,0,0,0,0,0,0,0,0,0,0,0,0,0,0,0,0,0,0,0,0,0,0,0,0,0,0,0,0,0,0,0,0,0,0,0,0,0,0,0,
0,0,0,0,0,0,0,0,0,0,0,0,0,0,0,0,0,0,0,0,0,0,0,0,0,0,0,0,0,0,0,0,0,0,0,0,0,0,0,0,
0,0,0,0,0,0,0,0,0,0,0,0,0,0,0,0,0,0,0,0,0,0,0,0,0,0,0,0,0,0,0,0,0,0,0,0,0,0,0,0,
0,0,0,0,0,0,0,0,0,0,0,0,0,0,0,0,0,0,0,0,0,0,0,0,0,0,0,0,0,0,0,0,0,0,0,0,0,0,0,0,
0,0,0,0,0,0,0,0,0,0,0,0,0,0,0,0,0,0,0,0,0,0,0,0,0,0,0,0,0,0,0,0,0,0,0,0,0,0,0,0,
0,0,0,0,0,0,0,0,0,0,0,0,0,0,0,0,0,0,0,0,0,0,0,0,0,0,0,0,0,0,0,0,0,0,0,0,0,0,0,0,
0,0,0,0,0,0,0,0,0,0,0,0,0,0,0,0,0,0,0,0,0,0,0,0,0,0,0,0,0,0,0,0,0,0,0,0,0,0,0,0,
0,0,0,0,0,0,0,0,0,0,0,0,0,0,0,0,0,0,0,0,0,0,0,0,0,0,0,0,0,0,0,0,0,0,0,0,0,0,0,0,
0,44,0,0,0,0,0,0,0,0,0,0,0,0,0,0,0,0,0,0,0,0,0,0,0,0,0,0,0,0,0,0,0,0,0,0,0,0,0,0,
0,0,0,0,0,0,0,0,0,0,0,0,0,0,0,0,0,0,0,0,0,0,0,0,0,0,0,0,0,0,0,0,0,0,0,0,0,0,0,0
</data>
 </layer>
</map>
