<?xml version="1.0" encoding="UTF-8"?>
<map version="1.10" tiledversion="1.11.2" orientation="orthogonal" renderorder="right-down" width="20" height="21" tilewidth="32" tileheight="32" infinite="0" nextlayerid="4" nextobjectid="37">
 <editorsettings>
  <export target="../../assets/levels/survival-02.json" format="json"/>
 </editorsettings>
 <tileset firstgid="1" source="Core Tiles.tsx"/>
 <tileset firstgid="79" source="Props.tsx"/>
 <layer id="1" name="tiles" width="20" height="21">
  <data encoding="csv">
4,22,22,22,22,22,22,22,22,22,22,22,22,22,5,22,22,22,22,6,
30,37,37,39,37,37,37,39,37,37,37,39,37,37,36,37,37,37,37,30,
30,8,8,8,8,8,8,8,8,8,8,61,62,63,38,8,8,8,8,30,
30,8,8,8,8,8,8,8,8,8,8,8,8,8,8,8,8,8,8,30,
30,8,8,8,8,8,8,8,8,8,8,8,8,8,8,8,8,8,8,30,
30,8,8,8,8,8,8,8,8,8,8,8,8,8,24,8,8,8,8,30,
10,22,23,8,8,21,22,6,14,14,14,14,14,14,16,23,8,8,21,12,
30,37,39,8,8,37,37,30,33,33,33,33,33,33,37,39,8,8,37,30,
30,8,8,8,8,8,8,36,35,35,35,35,35,35,7,8,8,8,8,30,
30,8,8,8,8,8,8,38,3,35,35,35,35,35,7,8,8,8,8,30,
30,8,8,8,8,8,8,8,9,31,31,31,31,31,7,8,8,8,8,30,
30,8,8,8,8,8,8,8,9,31,31,31,31,31,7,8,8,8,8,30,
30,8,8,8,8,8,8,24,15,32,32,32,32,32,7,8,8,8,8,30,
30,8,8,8,8,8,8,30,33,35,35,35,35,35,7,8,8,8,8,30,
10,22,22,23,8,8,21,18,35,35,35,35,35,35,7,8,8,8,8,30,
30,37,37,37,8,8,39,37,35,35,35,35,35,35,7,8,8,8,8,30,
30,8,8,8,8,8,8,25,2,2,2,2,2,2,26,8,8,8,8,30,
30,8,8,8,8,8,8,8,8,8,8,8,8,8,8,8,8,8,8,30,
30,8,8,8,8,8,8,8,8,8,8,8,8,8,8,8,8,8,8,30,
30,8,8,8,8,8,8,8,8,8,8,8,8,8,8,8,8,8,8,30,
16,22,22,22,22,22,22,22,22,22,22,22,22,22,22,22,22,22,22,18
</data>
 </layer>
 <objectgroup id="3" name="props">
  <object id="1" gid="81" x="480" y="107" width="64" height="64"/>
  <object id="2" gid="87" x="498" y="123" width="64" height="64"/>
  <object id="3" gid="79" x="559" y="97" width="64" height="64"/>
  <object id="4" gid="82" x="540.33" y="635.67" width="64" height="64"/>
  <object id="5" gid="88" x="296.25" y="119" width="64" height="64"/>
  <object id="6" gid="88" x="168" y="119.25" width="64" height="64"/>
  <object id="7" gid="90" x="212" y="496.33" width="64" height="64"/>
  <object id="8" gid="90" x="197.667" y="496" width="64" height="64"/>
  <object id="9" gid="90" x="204.333" y="487.33" width="64" height="64"/>
  <object id="11" gid="90" x="104.333" y="497.33" width="64" height="64"/>
  <object id="12" gid="90" x="204.667" y="321.121" width="64" height="64"/>
  <object id="15" gid="84" x="45" y="319.997" width="64" height="64"/>
  <object id="16" gid="83" x="568" y="562.67" width="64" height="64"/>
  <object id="17" gid="88" x="34.667" y="490" width="64" height="64"/>
  <object id="18" gid="88" x="51.667" y="490" width="64" height="64"/>
  <object id="19" gid="88" x="68.848" y="490" width="64" height="64"/>
  <object id="21" gid="87" x="43.5" y="310.167" width="64" height="64"/>
  <object id="22" gid="85" x="104" y="661" width="64" height="64"/>
  <object id="23" gid="83" x="69.667" y="650" width="64" height="64"/>
  <object id="24" gid="83" x="471.5" y="317.5" width="64" height="64"/>
  <object id="25" gid="85" x="467" y="354" width="64" height="64"/>
  <object id="26" gid="80" x="560" y="194" width="64" height="64"/>
  <object id="27" gid="90" x="38" y="576" width="64" height="64"/>
  <object id="28" gid="90" x="36" y="596.67" width="64" height="64"/>
  <object id="30" gid="91" x="153" y="301.667" width="64" height="64"/>
  <object id="31" gid="90" x="569" y="667" width="64" height="64"/>
  <object id="32" gid="91" x="522" y="108.667" width="64" height="64"/>
  <object id="33" gid="92" x="419" y="118.667" width="64" height="64"/>
  <object id="34" gid="92" x="389" y="118" width="64" height="64"/>
  <object id="35" gid="92" x="358" y="118.333" width="64" height="64"/>
  <object id="36" gid="81" x="19.3333" y="294.333" width="64" height="64"/>
 </objectgroup>
 <layer id="2" name="decor" width="20" height="21">
  <data encoding="csv">
0,0,0,0,0,0,0,0,0,0,0,0,0,0,0,0,0,0,0,0,
0,0,0,0,0,41,0,0,0,41,0,0,0,0,0,0,41,41,0,0,
0,0,0,0,0,0,0,0,0,0,0,0,0,0,0,0,0,0,0,0,
0,0,44,0,0,0,0,0,0,0,0,0,0,0,0,0,0,44,0,0,
0,0,0,0,0,0,0,0,0,0,0,0,0,0,0,0,0,0,0,0,
0,0,0,0,0,0,0,0,0,0,0,0,0,0,0,0,0,0,0,0,
0,0,0,0,0,0,0,0,0,0,0,0,0,0,0,0,0,0,0,0,
0,0,0,0,0,40,69,0,0,0,0,0,0,0,0,0,0,0,40,0,
0,0,0,0,0,0,0,0,0,0,0,0,0,0,0,0,0,0,0,0,
0,0,0,0,0,0,0,0,0,0,0,0,0,0,0,0,0,0,0,0,
0,0,0,0,45,0,0,0,0,0,0,0,0,0,0,0,0,0,0,0,
0,0,0,0,0,0,0,0,0,0,0,0,0,0,0,0,0,0,44,0,
0,0,0,0,0,0,0,0,0,0,0,0,0,0,0,0,0,0,0,0,
0,0,0,0,0,0,0,0,0,0,0,0,0,0,0,0,0,0,0,0,
0,0,0,0,0,0,0,0,0,0,0,0,0,0,0,0,0,0,0,0,
0,74,75,42,0,0,0,0,0,0,0,0,0,0,0,0,0,0,0,0,
0,0,0,0,0,0,0,0,0,0,0,0,0,0,0,0,0,0,0,0,
0,0,0,0,0,0,0,0,0,0,0,0,0,0,0,0,0,0,0,0,
0,0,44,0,0,0,0,0,0,0,0,0,0,0,0,0,0,0,0,0,
0,0,0,0,0,0,0,0,0,0,0,0,0,0,0,0,0,0,0,0,
0,0,0,0,0,0,0,0,0,0,0,0,0,0,0,0,0,0,0,0
</data>
 </layer>
</map>
